Origami/22x22/apps/trillian.svg

<svg width="22" height="22" version="1" xmlns="http://www.w3.org/2000/svg">
 <path d="m9 1.5c-3.8304593 0-7 3.1695407-7 7 0 2.772762 1.6885002 5.158503 4.0585938 6.287109 0.161775 3.693176 3.2124252 6.712891 6.9414062 6.712891 3.830459 0 7-3.169541 7-7 5.8e-5 -0.399264-0.110123-0.785339-0.177734-1.177734 0.04738-0.27491 0.176909-0.532079 0.177734-0.8125a3.0003 3.0003 0 0 0 0 -0.009766c0-2.416453-1.818338-4.3814826-4.123047-4.8183594-0.014342-0.1206541-0.034087-0.2396384-0.054687-0.359375 0.047378-0.27491 0.176909-0.5320781 0.177734-0.8125a3.0003 3.0003 0 0 0 0 -0.0097656c0-2.7258898-2.27411-5-5-5a3.0003 3.0003 0 0 0 -0.01367 0c-0.280483 0.00121-0.537614 0.1319151-0.8125 0.1796875-0.387063-0.0674444-0.768152-0.1781102-1.162111-0.1796875a3.0003 3.0003 0 0 0 -0.011719 0z" style="opacity:.2"/>
 <path d="M 9,1 C 5.1695407,1 2,4.1695407 2,8 2,10.772762 3.6885002,13.158503 6.0585938,14.287109 6.2203688,17.980285 9.271019,21 13,21 c 3.830459,0 7,-3.169541 7,-7 5.8e-5,-0.399264 -0.110123,-0.785339 -0.177734,-1.177734 0.04738,-0.27491 0.176909,-0.532079 0.177734,-0.8125 A 3.0003,3.0003 0 0 0 20,12 C 20,9.583547 18.181662,7.6185174 15.876953,7.1816406 15.862611,7.0609865 15.842866,6.9420022 15.822266,6.8222656 15.869644,6.5473556 15.999175,6.2901875 16,6.0097656 A 3.0003,3.0003 0 0 0 16,6 C 16,3.2741102 13.72589,1 11,1 A 3.0003,3.0003 0 0 0 10.98633,1 C 10.705847,1.00121 10.448716,1.1319151 10.17383,1.1796875 9.786767,1.1122431 9.405678,1.0015773 9.011719,1 A 3.0003,3.0003 0 0 0 9,1 Z" style="fill:#a32b58"/>
 <path d="m9 4.5a4 4 0 0 0 -4 4 4 4 0 0 0 4 4 4 4 0 0 0 4 -4 4 4 0 0 0 -4 -4zm0.5 0.5a3 3 0 0 1 3 3 3 3 0 0 1 -3 3 3 3 0 0 1 -3 -3 3 3 0 0 1 3 -3z" style="opacity:.2"/>
 <path d="m13 10.5a4 4 0 0 0 -4 4 4 4 0 0 0 4 4 4 4 0 0 0 4 -4 4 4 0 0 0 -4 -4zm0.5 0.5a3 3 0 0 1 3 3 3 3 0 0 1 -3 3 3 3 0 0 1 -3 -3 3 3 0 0 1 3 -3z" style="opacity:.2"/>
 <path d="m9 4a4 4 0 0 0 -4 4 4 4 0 0 0 4 4 4 4 0 0 0 4 -4 4 4 0 0 0 -4 -4zm0.5 0.5a3 3 0 0 1 3 3 3 3 0 0 1 -3 3 3 3 0 0 1 -3 -3 3 3 0 0 1 3 -3z" style="fill:#f3ab6f"/>
 <circle cx="11" cy="6.5" r="2" style="opacity:.2"/>
 <circle cx="11" cy="6" r="2" style="fill:#f7c39a"/>
 <path d="m13 10a4 4 0 0 0 -4 4 4 4 0 0 0 4 4 4 4 0 0 0 4 -4 4 4 0 0 0 -4 -4zm0.5 0.5a3 3 0 0 1 3 3 3 3 0 0 1 -3 3 3 3 0 0 1 -3 -3 3 3 0 0 1 3 -3z" style="fill:#f3ab6f"/>
 <circle cx="15" cy="12.5" r="2" style="opacity:.2"/>
 <circle cx="15" cy="12" r="2" style="fill:#f7c39a"/>
 <path d="M 9,1 C 5.1695407,1 2,4.1695407 2,8 2,8.069055 2.013546,8.1345635 2.015625,8.203125 2.1755112,4.5082754 5.2697884,1.5 9,1.5 a 3.0003,3.0003 0 0 1 0.01172,0 C 9.405679,1.50158 9.786766,1.6122431 10.173829,1.6796875 10.448714,1.6319151 10.705845,1.50121 10.986328,1.5 A 3.0003,3.0003 0 0 1 11,1.5 c 2.596957,0 4.779401,2.0648306 4.980469,4.6171875 C 15.98456,6.0809725 15.999891,6.0466935 16,6.0097656 A 3.0003,3.0003 0 0 0 16,6 C 16,3.2741102 13.72589,1 11,1 A 3.0003,3.0003 0 0 0 10.98633,1 C 10.705845,1.00121 10.448714,1.1319151 10.173828,1.1796875 9.786765,1.1122431 9.405678,1.0015773 9.011719,1 A 3.0003,3.0003 0 0 0 9,1 Z m 6.871094,6.1386719 c -0.01678,0.061144 -0.03806,0.121097 -0.04883,0.1835937 0.0206,0.1197366 0.04035,0.2387209 0.05469,0.359375 2.199564,0.4169456 3.938053,2.2313334 4.09375,4.4960934 0.0092,-0.05606 0.02913,-0.1103 0.0293,-0.167968 A 3.0003,3.0003 0 0 0 20,12 c 0,-2.416453 -1.818338,-4.3814826 -4.123047,-4.8183594 -0.0017,-0.014392 -0.004,-0.02862 -0.0059,-0.042969 z m 4.005859,5.9707031 c -0.01999,0.0706 -0.04223,0.140581 -0.05469,0.212891 0.05835,0.338654 0.136619,0.673845 0.160156,1.015625 C 19.98798,14.225036 20,14.114094 20,14 c 4.4e-5,-0.301496 -0.06317,-0.595769 -0.123047,-0.890625 z" style="fill:#ffffff;opacity:.1"/>
</svg>

<svg xmlns="http://www.w3.org/2000/svg" width="22" height="22" version="1">
 <path style="opacity:0.2" d="m 9,1.5 c -3.8304593,0 -7,3.1695407 -7,7 0,2.772762 1.6885002,5.158503 4.0585938,6.287109 C 6.2203688,18.480285 9.271019,21.5 13,21.5 c 3.830459,0 7,-3.169541 7,-7 5.8e-5,-0.399264 -0.110123,-0.785339 -0.177734,-1.177734 0.04738,-0.27491 0.176909,-0.532079 0.177734,-0.8125 A 3.0003,3.0003 0 0 0 20,12.5 C 20,10.083547 18.181662,8.1185174 15.876953,7.6816406 15.862611,7.5609865 15.842866,7.4420022 15.822266,7.3222656 15.869644,7.0473556 15.999175,6.7901875 16,6.5097656 A 3.0003,3.0003 0 0 0 16,6.5 c 0,-2.7258898 -2.27411,-5 -5,-5 a 3.0003,3.0003 0 0 0 -0.01367,0 C 10.705847,1.50121 10.448716,1.6319151 10.17383,1.6796875 9.786767,1.6122431 9.405678,1.5015773 9.011719,1.5 A 3.0003,3.0003 0 0 0 9,1.5 Z"/>
 <path style="fill:#a32b58" d="M 9,1 C 5.1695407,1 2,4.1695407 2,8 2,10.772762 3.6885002,13.158503 6.0585938,14.287109 6.2203688,17.980285 9.271019,21 13,21 c 3.830459,0 7,-3.169541 7,-7 5.8e-5,-0.399264 -0.110123,-0.785339 -0.177734,-1.177734 0.04738,-0.27491 0.176909,-0.532079 0.177734,-0.8125 A 3.0003,3.0003 0 0 0 20,12 C 20,9.583547 18.181662,7.6185174 15.876953,7.1816406 15.862611,7.0609865 15.842866,6.9420022 15.822266,6.8222656 15.869644,6.5473556 15.999175,6.2901875 16,6.0097656 A 3.0003,3.0003 0 0 0 16,6 C 16,3.2741102 13.72589,1 11,1 A 3.0003,3.0003 0 0 0 10.98633,1 C 10.705847,1.00121 10.448716,1.1319151 10.17383,1.1796875 9.786767,1.1122431 9.405678,1.0015773 9.011719,1 A 3.0003,3.0003 0 0 0 9,1 Z"/>
 <path style="opacity:0.2" d="m 9,4.5 a 4,4 0 0 0 -4,4 4,4 0 0 0 4,4 4,4 0 0 0 4,-4 4,4 0 0 0 -4,-4 z M 9.5,5 a 3,3 0 0 1 3,3 3,3 0 0 1 -3,3 3,3 0 0 1 -3,-3 3,3 0 0 1 3,-3 z"/>
 <path style="opacity:0.2" d="m 13,10.5 a 4,4 0 0 0 -4,4 4,4 0 0 0 4,4 4,4 0 0 0 4,-4 4,4 0 0 0 -4,-4 z m 0.5,0.5 a 3,3 0 0 1 3,3 3,3 0 0 1 -3,3 3,3 0 0 1 -3,-3 3,3 0 0 1 3,-3 z"/>
 <path style="fill:#f3ab6f" d="M 9,4 A 4,4 0 0 0 5,8 4,4 0 0 0 9,12 4,4 0 0 0 13,8 4,4 0 0 0 9,4 Z m 0.5,0.5 a 3,3 0 0 1 3,3 3,3 0 0 1 -3,3 3,3 0 0 1 -3,-3 3,3 0 0 1 3,-3 z"/>
 <circle style="opacity:0.2" cx="11" cy="6.5" r="2"/>
 <circle style="fill:#f7c39a" cx="11" cy="6" r="2"/>
 <path style="fill:#f3ab6f" d="m 13,10 a 4,4 0 0 0 -4,4 4,4 0 0 0 4,4 4,4 0 0 0 4,-4 4,4 0 0 0 -4,-4 z m 0.5,0.5 a 3,3 0 0 1 3,3 3,3 0 0 1 -3,3 3,3 0 0 1 -3,-3 3,3 0 0 1 3,-3 z"/>
 <circle style="opacity:0.2" cx="15" cy="12.5" r="2"/>
 <circle style="fill:#f7c39a" cx="15" cy="12" r="2"/>
 <path style="opacity:0.1;fill:#ffffff" d="M 9,1 C 5.1695407,1 2,4.1695407 2,8 2,8.069055 2.013546,8.1345635 2.015625,8.203125 2.1755112,4.5082754 5.2697884,1.5 9,1.5 a 3.0003,3.0003 0 0 1 0.01172,0 C 9.405679,1.50158 9.786766,1.6122431 10.173829,1.6796875 10.448714,1.6319151 10.705845,1.50121 10.986328,1.5 A 3.0003,3.0003 0 0 1 11,1.5 c 2.596957,0 4.779401,2.0648306 4.980469,4.6171875 C 15.98456,6.0809725 15.999891,6.0466935 16,6.0097656 A 3.0003,3.0003 0 0 0 16,6 C 16,3.2741102 13.72589,1 11,1 A 3.0003,3.0003 0 0 0 10.98633,1 C 10.705845,1.00121 10.448714,1.1319151 10.173828,1.1796875 9.786765,1.1122431 9.405678,1.0015773 9.011719,1 A 3.0003,3.0003 0 0 0 9,1 Z m 6.871094,6.1386719 c -0.01678,0.061144 -0.03806,0.121097 -0.04883,0.1835937 0.0206,0.1197366 0.04035,0.2387209 0.05469,0.359375 2.199564,0.4169456 3.938053,2.2313334 4.09375,4.4960934 0.0092,-0.05606 0.02913,-0.1103 0.0293,-0.167968 A 3.0003,3.0003 0 0 0 20,12 c 0,-2.416453 -1.818338,-4.3814826 -4.123047,-4.8183594 -0.0017,-0.014392 -0.004,-0.02862 -0.0059,-0.042969 z m 4.005859,5.9707031 c -0.01999,0.0706 -0.04223,0.140581 -0.05469,0.212891 0.05835,0.338654 0.136619,0.673845 0.160156,1.015625 C 19.98798,14.225036 20,14.114094 20,14 c 4.4e-5,-0.301496 -0.06317,-0.595769 -0.123047,-0.890625 z"/>
</svg>
